docs/local/img/logo.mobile.svg

<svg width="77" height="59" viewBox="0 0 77 59" fill="none" xmlns="http://www.w3.org/2000/svg">
<path d="M27.0505 51.5588L31.434 54.0763V24.4921H38.6573V21.4902H27.0593L27.0505 51.5588ZM59.6201 30.8286L56.6226 32.0133V24.4584H59.6201V30.8286ZM53.6135 21.4797L52.2385 22.8803V50.8366L56.6226 48.305V35.2413L59.8667 33.9595L64.0041 32.5945V22.9488L62.5346 21.4799H53.6136L53.6135 21.4797ZM29.4397 7.39201L29.3624 7.23094C31.5569 5.61575 31.7104 4.10931 31.712 4.0938L31.8918 4.08501C32.3731 6.58805 29.4694 7.38432 29.4396 7.39201H29.4397ZM54.8091 9.39016C55.4172 9.00446 57.3055 7.48524 56.049 4.13417L56.2046 4.04533C56.2482 4.09888 57.2675 5.3885 56.9893 6.93449C56.8065 7.95046 56.1047 8.82842 54.9062 9.54354C54.7981 9.61247 54.7301 9.64611 54.7301 9.64611L54.6451 9.48505C54.7014 9.45291 54.7565 9.42161 54.8089 9.39016H54.8091ZM68.8169 7.57079C68.8505 7.47151 69.1055 7.36098 69.4172 7.36098C69.5608 7.36098 69.7119 7.38254 69.8665 7.4262C70.0083 7.46643 70.191 7.58946 70.3835 7.72032C70.5535 7.83566 70.7648 7.9786 70.8476 7.9786L70.9443 7.97682L70.9408 8.0728C70.936 8.21862 70.8288 8.49325 70.4608 8.49325C70.0984 8.49325 69.5559 8.21904 68.849 7.67762L68.796 7.63244L68.817 7.57065L68.8169 7.57079ZM46.4025 5.85742C43.3878 8.39466 41.0123 12.9818 40.9913 13.0222L40.8507 13.3549C40.1223 14.9452 39.2151 17.1491 39.0048 18.6561L40.8292 20.3987H43.9397C43.7691 20.0775 43.5055 19.7145 43.1446 19.5699L42.9052 19.474L43.1518 19.3984C43.1584 19.3969 43.1964 19.3857 43.2587 19.3857C43.486 19.3857 43.9457 19.5176 44.4687 20.3988H45.2087C45.142 20.0842 44.742 19.0242 42.3554 18.275L42.2279 18.2342L42.3124 18.131C42.3572 18.0752 46.8748 12.5589 52.8138 10.1502L52.8926 10.3134C52.859 10.3334 49.5487 12.2237 47.8784 13.7584C48.603 13.7524 51.0418 13.7065 53.2315 13.3677L53.2674 13.3622L53.297 13.3825C53.376 13.4373 61.7183 18.8273 67.9073 20.3575H72.3285C72.3285 20.3568 72.3278 20.3568 72.3274 20.3568H73.3648C73.3278 20.0522 72.914 18.5988 69.7146 18.2577C68.7396 18.1541 67.3781 17.9482 66.381 17.4345C64.2842 16.1372 60.8585 13.7738 59.0138 11.1869L58.9449 11.0693L59.0829 11.0419L59.1171 11.0369C59.2869 11.0347 59.4878 11.007 59.7289 10.9547C59.9044 10.941 60.0854 10.9333 60.2653 10.9333C61.209 10.9333 62.6596 11.1379 64.209 12.1147L64.2426 12.1361L64.2498 12.1747C64.2547 12.1996 64.7503 14.6705 67.3725 15.3769L68.6554 14.5889L67.7001 13.8253L68.2624 13.427L67.3547 13.5506L67.3121 13.5164C66.9523 13.3834 66.6555 12.8979 66.6478 12.4212C66.6428 12.1247 66.746 11.5862 67.5075 11.3015C68.1382 11.1438 68.5173 11.0968 69.1816 11.0444L69.2379 11.04L69.2667 11.0879C69.5221 11.5112 69.9647 11.898 70.5125 12.179L70.6577 12.2534L69.5463 12.9244L71.6454 12.531L71.7783 12.4928C72.0951 12.4003 72.4874 12.1768 72.9449 11.8285C73.2054 11.6298 73.4332 11.428 73.6231 11.2293C73.569 10.9975 73.399 10.4219 73.012 10.1422L72.8526 10.0245L73.0473 9.97937C73.0473 9.97937 73.0632 9.97607 73.0932 9.97607C73.2257 9.97607 73.5754 10.0445 74.0648 10.6559C74.1266 10.546 74.1554 10.4683 74.1663 10.4319C74.0693 10.2289 73.4301 8.97741 72.1389 8.25941L72.1168 8.24787L70.9635 6.27842C70.7439 6.10746 67.8464 3.89236 64.8909 3.48743L65.8284 4.42554L65.6999 4.55365C64.711 3.56474 62.5364 3.20498 62.1286 3.14539C61.9394 3.62103 62.2681 4.18167 62.4121 4.42609C62.4315 4.45904 62.4469 4.48568 62.458 4.506L62.4772 4.54239C62.5717 4.71952 62.7295 5.01639 63.0208 5.30776L62.9155 5.45345L62.5794 5.28579L62.5679 5.27248C61.8732 4.5082 61.542 3.83565 61.5833 3.27281C61.6144 2.85607 61.8461 2.66246 61.8555 2.65423L61.8743 2.63871L61.8986 2.63486C62.0128 2.61564 62.1348 2.6063 62.2606 2.6063C62.3748 2.6063 62.489 2.61399 62.6011 2.62786C58.7212 0.935364 54.7808 0.17109 53.4581 0.0806016C52.7097 0.0292472 52.2666 0 51.8655 0C51.1625 0 50.6201 0.0921358 49.17 0.339845C48.8135 0.400125 48.4035 0.470153 47.9118 0.551304C47.8081 0.55611 37.4517 1.04178 30.7258 2.78783L30.7048 2.79373L28.7783 2.37439C28.5966 2.4186 27.1527 2.78385 25.4731 3.71097L25.4576 3.71921L25.441 3.72182C25.3322 3.73665 14.4036 5.3171 3.67699 13.3758L3.6174 13.4204C2.90558 13.9552 0.739772 15.5802 0.160181 16.9807C-0.201771 17.8553 0.0614525 18.6599 0.830807 19.0301C1.11724 19.1681 1.46038 19.2381 1.85268 19.2381C3.13009 19.2381 4.5665 18.5042 5.19332 17.5308C5.24962 17.4431 5.26843 17.3387 5.24633 17.2372C5.22422 17.1347 5.16408 17.048 5.07634 16.9912C5.01303 16.9504 4.94012 16.9287 4.86501 16.9287C4.73154 16.9287 4.60893 16.9954 4.5367 17.1082C3.99158 17.9545 2.74671 18.4605 1.85817 18.4605C1.58575 18.4605 1.35383 18.4154 1.1701 18.3265C1.06863 18.2779 0.580216 17.9949 0.904682 17.2191C0.935028 17.1456 1.24521 16.4713 2.67833 15.408C5.09748 13.6136 10.0808 10.6923 20.0807 6.96813L20.158 7.13208L17.4033 8.71803C17.2186 8.88239 13.747 11.9301 9.76414 12.7489C9.52906 12.8869 5.98478 15.0418 5.64041 19.0639L7.4569 20.3159H10.2998C10.0813 19.9329 9.83018 19.6819 9.55103 19.5704L9.31005 19.4739L9.55831 19.3988C9.5649 19.3973 9.60197 19.3861 9.66308 19.3861C9.88154 19.3861 10.3197 19.5086 10.8231 20.3159H11.6062C11.5828 19.9539 11.3423 18.5855 9.03858 17.983L8.97515 17.967L8.97075 17.9018C8.96897 17.8771 8.82836 15.428 11.5157 14.9591L11.5301 14.9569L11.5445 14.9591C11.5511 14.9595 12.1966 15.0512 13.2689 15.0512C16.3397 15.0512 22.3108 14.335 27.7968 9.5386L27.9326 9.65778C27.894 9.71408 27.0928 10.8922 26.2109 11.5748C27.1153 11.4224 29.45 11.0914 33.087 11.0103L33.1091 11.0099L33.1296 11.0191C34.365 11.6257 36.2892 12.1802 37.6853 12.5382L37.6489 12.7158L36.5 12.5416L32.9535 11.6653L31.1392 11.7055C30.999 11.9985 30.2392 13.3958 27.7578 15.2785C27.6867 15.3911 27.2016 16.172 26.9626 16.7739C27.3842 17.0745 30.1465 18.9827 34.0259 20.3159H38.2688C38.2318 20.0113 37.9239 18.9531 35.464 18.4045C35.3084 18.3979 33.3318 18.286 31.194 16.7132L31.0396 16.5996L31.2244 16.5515C31.2757 16.5378 36.381 15.1918 39.0909 12.9162L39.1257 12.8869L39.1699 12.8974C39.6869 13.0144 40.1245 13.1061 40.4301 13.165C41.9388 9.46568 45.919 5.39839 45.9598 5.35692L45.9901 5.32548L49.7386 5.73878L49.7271 5.91976L46.4019 5.85797L46.4025 5.85742ZM46.8736 21.5238L44.0793 27.5772L43.906 27.5391V21.4796H39.5224V58.2374L43.906 55.6748V35.3461L46.6987 29.0741L46.8736 29.1105V53.9757L51.2567 51.4333V21.4795H46.8736V21.5235V21.5238ZM21.571 28.9602H18.6497V24.4584H21.571V28.9602ZM15.6682 21.4742L14.2976 22.8526L14.2655 44.0978L18.6497 46.6599V31.9612H21.571V48.3567L25.9551 50.889L25.9754 22.9255L24.5464 21.488L15.6682 21.4742ZM5.84006 29.0583L8.70671 30.1872V37.6693L5.84006 36.038V29.0583ZM1.4564 36.6628L13.0908 43.4473V29.1218L5.84006 26.3005V24.4816H13.0913V21.4797L1.4564 21.4869V36.6628ZM72.3757 28.96H69.5676V24.4583H72.3757V28.96ZM75.4047 21.4862L66.5282 21.4803L65.1155 22.8862V43.3645L69.5676 40.8008V31.9612H72.3757V39.211L76.8267 36.6772V22.9177L75.4047 21.4863V21.4862Z" fill="#231F20"/>
</svg>

<svg width="77" height="59" viewBox="0 0 77 59" fill="none" xmlns="http://www.w3.org/2000/svg"><path d="M27.05 51.559l4.384 2.517V24.492h7.223V21.49H27.06l-.01 30.07zm32.57-20.73l-2.997 1.184v-7.555h2.997v6.37zm-6.006-9.35l-1.375 1.401v27.957l4.384-2.532V35.241l3.244-1.282 4.137-1.365V22.95l-1.47-1.47h-8.92zM29.44 7.393l-.078-.161c2.195-1.615 2.348-3.122 2.35-3.137l.18-.009c.481 2.503-2.423 3.3-2.452 3.307zM54.81 9.39c.607-.386 2.495-1.905 1.239-5.256l.156-.089c.043.054 1.063 1.343.784 2.89-.182 1.015-.884 1.893-2.083 2.609a2.297 2.297 0 01-.176.102l-.085-.161c.056-.032.111-.063.164-.095zm14.007-1.82c.034-.098.289-.209.6-.209.144 0 .295.022.45.065.141.04.324.163.516.294.17.116.382.259.465.259l.096-.002-.003.096c-.005.146-.112.42-.48.42-.363 0-.905-.274-1.612-.815l-.053-.046.021-.061zM46.403 5.858c-3.015 2.538-5.39 7.125-5.412 7.165l-.14.333c-.729 1.59-1.636 3.794-1.846 5.301l1.824 1.743h3.11c-.17-.322-.434-.684-.794-.83l-.24-.095.247-.076c.006-.001.044-.012.107-.012.227 0 .687.132 1.21 1.013h.74c-.067-.315-.467-1.375-2.854-2.124l-.127-.04.084-.104c.045-.056 4.563-5.572 10.502-7.98l.079.162c-.034.02-3.344 1.91-5.015 3.445.725-.006 3.164-.051 5.353-.39l.036-.006.03.02c.079.055 8.421 5.445 14.61 6.976h4.422l-.002-.001h1.038c-.037-.305-.451-1.758-3.65-2.1-.975-.103-2.337-.309-3.334-.823-2.097-1.297-5.523-3.66-7.367-6.247l-.07-.118.139-.027.034-.005c.17-.002.37-.03.612-.082.175-.014.356-.022.536-.022.944 0 2.395.205 3.944 1.182l.034.021.007.039c.005.025.5 2.495 3.123 3.202l1.282-.788-.955-.764.562-.398-.907.124-.043-.035c-.36-.133-.656-.618-.664-1.095-.005-.296.098-.835.86-1.12.63-.157 1.01-.204 1.674-.257l.056-.004.029.048c.255.423.698.81 1.246 1.091l.145.074-1.112.671 2.1-.393.132-.038c.317-.093.71-.316 1.167-.665.26-.198.488-.4.678-.599-.054-.231-.224-.807-.611-1.087l-.16-.117.195-.046s.016-.003.046-.003c.133 0 .482.068.972.68.062-.11.09-.188.101-.224-.097-.203-.736-1.455-2.027-2.173l-.022-.011-1.154-1.97c-.22-.17-3.117-2.386-6.072-2.79l.937.938-.128.128c-.989-.99-3.164-1.349-3.571-1.409-.19.476.14 1.037.283 1.281l.046.08.02.036c.094.178.252.474.543.766l-.105.145-.337-.167-.011-.014c-.695-.764-1.026-1.436-.985-2 .031-.416.263-.61.273-.618l.018-.015.025-.004c.114-.02.236-.029.362-.029.114 0 .228.008.34.022C58.721.935 54.781.17 53.458.08 52.71.029 52.267 0 51.865 0c-.703 0-1.245.092-2.695.34-.357.06-.767.13-1.258.211-.104.005-10.46.49-17.186 2.237l-.021.006-1.927-.42c-.181.045-1.625.41-3.305 1.337l-.015.008-.017.003c-.109.015-11.037 1.595-21.764 9.654l-.06.044C2.906 13.955.74 15.58.16 16.98c-.362.875-.099 1.68.67 2.05.287.138.63.208 1.023.208 1.277 0 2.713-.734 3.34-1.707a.388.388 0 00.053-.294.388.388 0 00-.381-.308.388.388 0 00-.328.18c-.545.845-1.79 1.351-2.679 1.351-.272 0-.504-.045-.688-.134-.101-.048-.59-.331-.265-1.107.03-.073.34-.748 1.773-1.811 2.42-1.794 7.403-4.716 17.403-8.44l.077.164-2.755 1.586c-.184.164-3.656 3.212-7.639 4.03-.235.139-3.78 2.294-4.124 6.316l1.817 1.252H10.3c-.219-.383-.47-.634-.749-.746l-.24-.096.247-.075c.007-.002.044-.013.105-.013.219 0 .657.123 1.16.93h.783c-.023-.362-.264-1.73-2.567-2.333l-.064-.016-.004-.065c-.002-.025-.143-2.474 2.545-2.943l.014-.002.014.002c.007 0 .653.092 1.725.092 3.07 0 9.042-.716 14.528-5.512l.136.119c-.039.056-.84 1.234-1.722 1.917.904-.153 3.239-.484 6.876-.565h.022l.02.01c1.236.606 3.16 1.16 4.556 1.518l-.036.178-1.149-.174-3.547-.877-1.814.04c-.14.293-.9 1.69-3.381 3.573-.071.113-.556.894-.795 1.496.421.3 3.183 2.209 7.063 3.542h4.243c-.037-.305-.345-1.363-2.805-1.912-.156-.006-2.132-.118-4.27-1.69l-.154-.114.184-.049c.052-.013 5.157-1.36 7.867-3.635l.035-.03.044.011c.517.117.954.21 1.26.268 1.509-3.7 5.489-7.767 5.53-7.808l.03-.032 3.749.414-.012.18-3.325-.061zm.47 15.667l-2.794 6.053-.173-.038v-6.06h-4.384v36.758l4.384-2.562v-20.33l2.793-6.272.175.036v24.866l4.383-2.543V21.48h-4.383v.043zM21.572 28.96H18.65v-4.502h2.921v4.502zm-5.903-7.486l-1.37 1.379-.033 21.245 4.385 2.562v-14.7h2.921v16.396l4.384 2.532.02-27.964-1.429-1.437-8.878-.014zM5.84 29.058l2.867 1.13v7.481L5.84 36.038v-6.98zm-4.384 7.605l11.635 6.784V29.122L5.84 26.3v-1.818h7.25V21.48l-11.635.007v15.176zm70.92-7.703h-2.808v-4.502h2.808v4.502zm3.029-7.474l-8.877-.006-1.413 1.406v20.479l4.453-2.564v-8.84h2.808v7.25l4.45-2.534v-13.76l-1.421-1.43z" fill="#231F20"/></svg> 5.24633 17.2372C5.22422 17.1347 5.16408 17.048 5.07634 16.9912C5.01303 16.9504 4.94012 16.9287 4.86501 16.9287C4.73154 16.9287 4.60893 16.9954 4.5367 17.1082C3.99158 17.9545 2.74671 18.4605 1.85817 18.4605C1.58575 18.4605 1.35383 18.4154 1.1701 18.3265C1.06863 18.2779 0.580216 17.9949 0.904682 17.2191C0.935028 17.1456 1.24521 16.4713 2.67833 15.408C5.09748 13.6136 10.0808 10.6923 20.0807 6.96813L20.158 7.13208L17.4033 8.71803C17.2186 8.88239 13.747 11.9301 9.76414 12.7489C9.52906 12.8869 5.98478 15.0418 5.64041 19.0639L7.4569 20.3159H10.2998C10.0813 19.9329 9.83018 19.6819 9.55103 19.5704L9.31005 19.4739L9.55831 19.3988C9.5649 19.3973 9.60197 19.3861 9.66308 19.3861C9.88154 19.3861 10.3197 19.5086 10.8231 20.3159H11.6062C11.5828 19.9539 11.3423 18.5855 9.03858 17.983L8.97515 17.967L8.97075 17.9018C8.96897 17.8771 8.82836 15.428 11.5157 14.9591L11.5301 14.9569L11.5445 14.9591C11.5511 14.9595 12.1966 15.0512 13.2689 15.0512C16.3397 15.0512 22.3108 14.335 27.7968 9.5386L27.9326 9.65778C27.894 9.71408 27.0928 10.8922 26.2109 11.5748C27.1153 11.4224 29.45 11.0914 33.087 11.0103L33.1091 11.0099L33.1296 11.0191C34.365 11.6257 36.2892 12.1802 37.6853 12.5382L37.6489 12.7158L36.5 12.5416L32.9535 11.6653L31.1392 11.7055C30.999 11.9985 30.2392 13.3958 27.7578 15.2785C27.6867 15.3911 27.2016 16.172 26.9626 16.7739C27.3842 17.0745 30.1465 18.9827 34.0259 20.3159H38.2688C38.2318 20.0113 37.9239 18.9531 35.464 18.4045C35.3084 18.3979 33.3318 18.286 31.194 16.7132L31.0396 16.5996L31.2244 16.5515C31.2757 16.5378 36.381 15.1918 39.0909 12.9162L39.1257 12.8869L39.1699 12.8974C39.6869 13.0144 40.1245 13.1061 40.4301 13.165C41.9388 9.46568 45.919 5.39839 45.9598 5.35692L45.9901 5.32548L49.7386 5.73878L49.7271 5.91976L46.4019 5.85797L46.4025 5.85742ZM46.8736 21.5238L44.0793 27.5772L43.906 27.5391V21.4796H39.5224V58.2374L43.906 55.6748V35.3461L46.6987 29.0741L46.8736 29.1105V53.9757L51.2567 51.4333V21.4795H46.8736V21.5235V21.5238ZM21.571 28.9602H18.6497V24.4584H21.571V28.9602ZM15.6682 21.4742L14.2976 22.8526L14.2655 44.0978L18.6497 46.6599V31.9612H21.571V48.3567L25.9551 50.889L25.9754 22.9255L24.5464 21.488L15.6682 21.4742ZM5.84006 29.0583L8.70671 30.1872V37.6693L5.84006 36.038V29.0583ZM1.4564 36.6628L13.0908 43.4473V29.1218L5.84006 26.3005V24.4816H13.0913V21.4797L1.4564 21.4869V36.6628ZM72.3757 28.96H69.5676V24.4583H72.3757V28.96ZM75.4047 21.4862L66.5282 21.4803L65.1155 22.8862V43.3645L69.5676 40.8008V31.9612H72.3757V39.211L76.8267 36.6772V22.9177L75.4047 21.4863V21.4862Z" fill="#231F20"/>
</svg>
